X:150
T: ALS ICH EINMAL REISTE
N: K2255
O: Europa, Mitteleuropa, Deutschland, Kassel, Kirchditmold
R: Kinder - Lied, Reigen, Tanz, Nachahmungs - Spiel
M: 2/4
L: 1/8
K: G
 | GGGG | GBB2 |
BAAA | cBB2 |
GGGG | GBB2 |
BAAA | G2z2

@@@ Tune index: 7487
